src/assets/icons/user-minus.svg

<svg width="14" height="14" viewBox="0 0 14 14" fill="none" xmlns="http://www.w3.org/2000/svg">
<g id="user-minus">
<path id="Vector" fill-rule="evenodd" clip-rule="evenodd" d="M6.28986 2.33336C5.28134 2.33336 4.46377 3.15092 4.46377 4.15945C4.46377 5.16796 5.28134 5.98553 6.28986 5.98553C7.29837 5.98553 8.11594 5.16796 8.11594 4.15945C8.11594 3.15092 7.29837 2.33336 6.28986 2.33336ZM3.24638 4.15945C3.24638 2.47858 4.60899 1.11597 6.28986 1.11597C7.97072 1.11597 9.33333 2.47858 9.33333 4.15945C9.33333 5.84031 7.97072 7.20292 6.28986 7.20292C4.60899 7.20292 3.24638 5.84031 3.24638 4.15945ZM1.55059 10.966C1.34702 11.2799 1.21739 11.6983 1.21739 12.2754C1.21739 12.6116 0.944869 12.8841 0.608696 12.8841C0.272522 12.8841 0 12.6116 0 12.2754C0 11.5093 0.174721 10.8503 0.529124 10.3037C0.882888 9.75807 1.38698 9.36875 1.97342 9.09371C3.11919 8.55634 4.65817 8.42031 6.28986 8.42031C7.92154 8.42031 9.46052 8.55634 10.6063 9.09371C11.1927 9.36875 11.6968 9.75807 12.0506 10.3037C12.405 10.8503 12.5797 11.5093 12.5797 12.2754C12.5797 12.6116 12.3072 12.8841 11.971 12.8841C11.6348 12.8841 11.3623 12.6116 11.3623 12.2754C11.3623 11.6983 11.2327 11.2799 11.0291 10.966C10.8249 10.651 10.5174 10.3967 10.0894 10.1959C9.20615 9.78168 7.90455 9.63771 6.28986 9.63771C4.67516 9.63771 3.37356 9.78168 2.49035 10.1959C2.06229 10.3967 1.75479 10.651 1.55059 10.966ZM10.5507 5.98553C10.2146 5.98553 9.94203 6.25805 9.94203 6.59423C9.94203 6.9304 10.2146 7.20292 10.5507 7.20292H13.3913C13.7275 7.20292 14 6.9304 14 6.59423C14 6.25805 13.7275 5.98553 13.3913 5.98553H10.5507Z" fill="black"/>
</g>
</svg>

<svg xmlns="http://www.w3.org/2000/svg" fill="none" viewBox="0 0 14 14"><path fill="#000" fill-rule="evenodd" d="M6.29 2.333a1.826 1.826 0 1 0 0 3.653 1.826 1.826 0 0 0 0-3.653M3.246 4.16a3.043 3.043 0 1 1 6.087 0 3.043 3.043 0 0 1-6.087 0m-1.695 6.807c-.204.314-.334.732-.334 1.31a.609.609 0 1 1-1.217 0q-.001-1.152.53-1.972c.353-.546.857-.935 1.443-1.21C3.12 8.556 4.658 8.42 6.29 8.42s3.17.136 4.316.674c.587.275 1.09.664 1.445 1.21q.53.82.529 1.971a.609.609 0 1 1-1.218 0c0-.577-.13-.995-.333-1.309-.204-.315-.512-.57-.94-.77-.883-.414-2.184-.558-3.8-.558-1.614 0-2.915.144-3.799.558-.428.2-.735.455-.94.77m9-4.98a.609.609 0 0 0 0 1.217h2.84a.609.609 0 1 0 0-1.217z" clip-rule="evenodd"/></svg>
